!!!!SEGMENT: pl-wumfc--r261_paderewski-ignacy-jan--cahier-op-9.krn
!!!cenid: 18xx:3149
!!!COM: Paderewski, Ignacy Jan
!!!COM-rismID: pe30029943
!!!CDT: 1860/11/18-1941/06/29
!!!CNT: Polish
!!!OTL: Cahier op. 9
!!!PDT:
!!!AGN:
!!!SMS-siglum: PL-Wumfc
!!!SMS-shelfmark: R261
!!!SMS-shelfwork: W
!!!SMS-variant:
!!!SMS-altvar:
!!!NIFC-rismSourceID: 1001156635
!!!NIFC-islandoraID: pl-wumfc:278
!!!URL-pdf-islandora: https://repozytorium.nifc.pl/islandora/object/pl-wumfc%3A278/datastream/PDF/view
!!!URL-scan: https://polish.musicsources.pl/pl/lokalizacje/galeria/rekopisy/4681 @EN{Scan on Polish Music Sources Website} @PL{Skany w portalu Dziedzictwo Muzyki Polskiej w otwartym dostępie}
!!!ONB-nifc:
!!!OMD: Allegro vivace
!!!AIN: 1 piano
!!!key: G
**kern	**fing	**kern	**fing	**dynam
*part1	*part1	*part1	*part1	*part1
*staff2	*staff2	*staff1	*staff1	*
*I"[Pianoforte]	*	*I"[Pianoforte]	*	*
*Ipiano	*	*Ipiano	*	*
*ICklav	*	*ICklav	*	*
*IGsolo	*	*IGsolo	*	*
*clefF4	*	*clefG2	*	*
*k[f#]	*	*k[f#]	*	*
*G:	*	*G:	*	*
*M3/4	*	*M3/4	*	*
=1	=1	=1	=1	=1
!	!	!LO:TX:a:i:t=Nr 1.	!	!LO:DY:t=mf.
4D 4GG\	.	(4d/	.	mf
4B\	.	8e/L	.	.
.	.	8f#/	.	.
4B\	.	8g/	.	.
.	.	8a/J)	.	.
=2	=2	=2	=2	=2
4D 4GG\	.	(16a/LL	.	.
.	.	16b/J	.	.
.	.	8a/J)	.	.
4c\	.	(8e/L	.	.
.	.	8f#/	.	.
4c\	.	8d/	.	.
.	.	8dd/J)	.	.
=3	=3	=3	=3	=3
.	.	(<8qdd/	.	.
4D 4GG\	.	(4d/)	.	.
4B\	.	8e/L	.	.
.	.	8f#/	.	.
4B\	.	8g/	.	.
.	.	8b/J)	.	.
=4	=4	=4	=4	=4
4D 4GG\	.	(16a/LL	.	<
.	.	16b/J	.	.
.	.	8a/J)	.	.
4c\	.	(8e/L	.	.
.	.	8f#/	.	.
4c\	.	8d/	.	[
.	.	8dd/J)	.	.
=5	=5	=5	=5	=5
*	*	*^	*	*
4B\	.	(8dd/L	4r	.	.
!	!	!LO:TX:b:t=cres_:problem=dynamics with extention lines	!	!	!LO:HP:t=cres_
.	.	8gg/J	.	.	<
4d 4B\	.	4gg/)	2g\	.	.
4c#X 4B-X\	.	8ff#/L	.	.	.
.	.	8ee/J	.	.	[[
!!LO:LB:g=original
=6	=6	=6	=6	=6	=6
(2cn (2A\	.	(8dd/L	2f#\	.	.
.	.	8ee/J	.	.	.
.	.	4dd/	.	.	.
4d) 4G#X\)	.	4b/)	4fn\	.	.
=7	=7	=7	=7	=7	=7
*^	*	*	*	*	*
4c 4A\	4ryy	.	(8cc/L	2e\	.	.
.	.	.	8ee/J)	.	.	.
4c/	2AA\	.	4ee/	.	.	.
4F#/	.	.	(8dd/L	4e\	.	.
.	.	.	8cc/J)	.	.	.
=8	=8	=8	=8	=8	=8	=8
!	!	!	!LO:S:s=1:note:problem=note-level slur	!	!	!
(4F#/	2.BB\	.	(<8b/L	2d#X\	.	.
.	.	.	(8qdd/	.	.	.
.	.	.	8cc/J))	.	.	.
!LO:TX:t=P:problem=diverted accent or diminuedo	!	!	!	!	!	!
2B^/)	.	.	4b/	.	.	.
.	.	.	4f# 4d#/	4ryy	.	.
*v	*v	*	*	*	*	*
=9	=9	=9	=9	=9	=9
4E\	.	(8g/L	4e 4B\	.	<
.	.	8b/J	.	.	.
2A 2AA\	.	4a/)	2c\	.	[ sf
.	.	8e/L	.	.	.
.	.	8f#/J	.	.	.
=10	=10	=10	=10	=10	=10
!	!	!LO:TUP:a:problem=klamra łukowa	!	!	!
4E\	.	12g/L	4e 4B\	.	<
.	.	12a/	.	.	.
.	.	12b/J	.	.	.
!	!	!	!	!	!LO:DY:t=sf.
2A 2AA\	.	4a/	2c\	.	[ sf
.	.	4e/	.	.	.
!!LO:LB:g=original
=11	=11	=11	=11	=11	=11
*	*	*	*^	*	*
*	*	*	*	*	*below	*
!LO:TX:b:i:t=due pedale	!	!	!	!	!	!
[<2.DD\	.	4a/	[>2.d [2.c\	4ryy	1 1	.
!	!	!LO:TX:a:t=m.g.	!	!LO:N:n=1:vis=2	!	!
.	.	[2dd/	.	8dd 8e\L	.	<
!	!	!LO:TX:a:i:t=poco rallentando.	!	!	!	!
.	.	.	.	8g\	.	.
.	.	.	.	8f#\	.	.
.	.	.	.	8a\J	.	[[
=12	=12	=12	=12	=12	=12	=12
2DD\]	.	4dd/]	2.d] 2.c\]	8g\L	.	.
.	.	.	.	8b\	.	>
.	.	4dd/	.	8f#\	.	.
.	.	.	.	8a\	.	.
4D\	.	4ryy	.	8e\	.	.
.	.	.	.	8g\J	.	]]
*	*	*v	*v	*v	*	*
=13	=13	=13	=13	=13
!	!	!LO:TX:a:i:t=A tempo.	!	!
.	.	(<8qdd/	.	.
4D 4GG\	.	4d/)	.	.
4B\	.	(8e/L	.	.
.	.	8f#/	.	.
4B\	.	8g/	.	.
.	.	8b/J)	.	.
=14	=14	=14	=14	=14
4D 4GG\	.	(16a/LL	.	.
.	.	16b/J	.	.
.	.	8a/J)	.	.
4c\	.	(8e/L	.	.
.	.	8f#/	.	.
4c\	.	8d/	.	.
.	.	8dd/J)	.	.
=15	=15	=15	=15	=15
.	.	(<8qdd/	.	.
4D 4GG\	.	4d/)	.	.
4B\	.	(8e/L	.	.
.	.	8f#/	.	.
4B\	.	8g/	.	.
.	.	8b/J)	.	.
!!LO:LB:g=original
=16	=16	=16	=16	=16
4D 4GG\	.	(16a/LL	.	.
.	.	16b/J	.	.
.	.	8a/J)	.	.
4c\	.	(8e/L	.	.
.	.	8f#/	.	.
4c\	.	8d/	.	.
.	.	8dd/J)	.	.
=17	=17	=17	=17	=17
*^	*	*	*	*
4B\	4GG\	.	(8dd/L	.	.
.	.	.	8bb/J)	.	.
4d/	2G\	.	4bb/	.	.
4g/	.	.	(8aa/L	.	.
.	.	.	8gg/J)	.	.
*v	*v	*	*	*	*
=18	=18	=18	=18	=18
*	*	*^	*	*
(8g\L	.	[2bb/	2.b\	.	.
8c#X\	.	.	.	.	.
!	!	!LO:TX:b:i:t=rall.	!	!	!
8B\	.	.	.	.	.
8E\J	.	.	.	.	.
4C#X 4EE\)	.	8bb/L]	.	.	.
.	.	8gg/J	.	.	.
=19	=19	=19	=19	=19	=19
(8C#XL 8FF#\	.	4.ff#/	4a#X\	.	.
8F#\	.	.	.	.	.
!	!	!LO:TX:a:i:t=meno mosso.	!	!	!
[<8A#X\	.	.	4r	.	.
[8gJ [8e 8A#\_)	.	8cc#X/L	.	.	.
4g] 4e] 4A#\]	.	8dd/	4r	.	.
.	.	8ee/J	.	.	.
*	*	*v	*v	*	*
=20	=20	=20	=20	=20
.	.	(16qqdd/LL	.	.
.	.	16qqee/JJ)	.	.
2.f# 2.d 2.B\	.	(8dd/L	.	<
.	.	8cc#X/	.	.
.	.	8b/	.	.
.	.	8dd/	.	[
.	.	8cc#/	.	>
.	.	8b/J)	.	]]
!!LO:LB:g=original
=21	=21	=21	=21	=21
(8FF#\L	.	(4.cc#X^>/	.	.
8C#X\	.	.	.	.
8F#\	.	.	.	<
8A#X\J)	.	8f#/L	.	.
4e 4c#X\	.	8g/	.	.
.	.	8a/J)	.	.
=22	=22	=22	=22	=22
.	.	(16qqb/LL	.	.
.	.	16qqcc#X/JJ)	.	.
2e 2c#X 2G\	.	(8b/L	.	[
.	.	8a/	.	.
.	.	8g/	.	.
.	.	8b/	.	.
4C#X\	.	8a/	.	.
.	.	8g/J)	.	>
=23	=23	=23	=23	=23
8FF#\L	.	4.f#/	.	.
8C#X\J	.	.	.	.
4F#\	.	.	.	.
.	.	8b/L	.	]
4c#X 4B 4E\	.	8a/	.	.
.	.	8g/J	.	.
=24	=24	=24	=24	=24
8A#XL 8FF#\	.	4.f#/	.	.
8C#X\J	.	.	.	<
4F#\	.	.	.	.
.	.	8b/L	.	.
4c#X 4B 4E\	.	8a/	.	.
.	.	8g/J	.	[
=25	=25	=25	=25	=25
4c#X 4A#X 4F#\	.	8f#/L	.	>
!	!	!LO:TX:b:i:t=rit.	!	!
.	.	8g/J	.	.
4d 4B 4F#\	.	4f#/	.	.
4d#X 4B#X 4F#\	.	8f#/L	.	.
.	.	8g/J	.	]]
!!LO:LB:g=original
=26	=26	=26	=26	=26
4e 4c#X 4F#\	.	8f#/L	.	<
.	.	8g/J	.	.
!LO:TX:a:t=rit.	!	!	!	!
4F#\	.	4f#/	.	.
4FF#\	.	8g#X/L	.	.
.	.	8a#X/J	.	[
=27	=27	=27	=27	=27
*	*	*^	*	*
!	!	!LO:TX:a:i:t=piu lento	!	!	!
2F# 2BB\	.	(8.b 8.B/	8.rc<	.	.
!	!	!	!LO:S:s=1:note:problem=note-level slur	!	!
.	.	16r	&(>16c#<X\)	.	.
!	!	!LO:TX:b:i:t=marcato il canto.:dur=5q	!	!	!
.	.	2dd 2d/&)	2ryy	.	.
4F# 4BB\	.	.	.	.	.
=28	=28	=28	=28	=28	=28
2G 2BB\	.	8.cc#X 8.c#X/	8.rc<	.	.
!	!	!	!LO:S:s=1:note:problem=note-level slur	!	!
.	.	16r	(>16f#>\	.	.
.	.	2ee 2e/)	2ryy	.	.
4G 4BB\	.	.	.	.	.
*	*	*v	*v	*	*
=29	=29	=29	=29	=29
*^	*	*	*	*
!	!	!	!LO:S:s=1:note:problem=note-level slur	!	!
8rF>	2F# 2BB\	.	(>8dd 8d/	.	<
8c#>X\	.	.	8r	.	.
8r>	.	.	8b 8B/	.	.
8f#>\	.	.	8rcc	.	.
4ryy	4G 4BB\	.	4ee 4e/)	.	[
*v	*v	*	*	*	*
=30	=30	=30	=30	=30
!LO:TX:b:t=2:color=dodgerblue:note=obwiedzione niebieskim kolorem:rj	!	!LO:TX:a:i:t=piu vivo	!	!
4r	.	(8ddM\L	.	.
.	.	8cc#X\	.	.
4f# 4B\	.	8b\	.	.
.	.	8dd\	.	.
4f# 4B\	.	8cc#\	.	.
.	.	8b\J)	.	.
!!LO:PB:g=original
=31	=31	=31	=31	=31
4f# 4A#X'\	.	8.ff#/L	.	>
.	.	(16dd/Jk	.	.
4f# 4An'\	.	4cc#X/)	.	.
4f# 4G#X'\	.	4b/	.	]
=32	=32	=32	=32	=32
4c#X 4F#'\	.	(>8aM</L	.	<
.	.	8g#X/	.	.
4c# 4E'\	.	8f#/	.	.
.	.	8a/	.	.
4c# 4D'\	.	8g#/	.	.
.	.	8f#/J	.	[[
=33	=33	=33	=33	=33
4c#X 4C#X\	.	8.cc#X/L)	.	.
.	.	(>16g#XJk 16e#X 16B/	.	.
*ped	*	*	*	*
!	!	!LO:TX:b:i:t=rit.	!	!
4FF#\	.	2a#X 2f# 2A#X/)	.	.
*Xped	*	*	*	*
4F#\	.	.	.	.
=34	=34	=34	=34	=34
*	*	*^	*	*
*ped	*	*	*	*	*
2F# 2BB\	.	8.b 8.B/	8.rc<	.	.
!	!	!	!LO:S:s=1:note:problem=note-level slur	!	!
.	.	16ryy	(16c#X\	.	.
!	!	!LO:TX:b:i:t=marcato il canto.:dur=5q	!	!	!
.	.	2dd 2d/)	2ryy	.	.
4F# 4BB\	.	.	.	.	.
*Xped	*	*	*	*	*
*	*	*v	*v	*	*
=35	=35	=35	=35	=35
2G 2BB\	.	8.cc#X 8.c#X/	.	.
!	!	!LO:S:s=1:note:problem=note-level slur	!	!
.	.	(16f#\	.	.
.	.	2ee 2e/)	.	.
4G 4BB\	.	.	.	.
!!LO:LB:g=original
=36	=36	=36	=36	=36
*	*	*^	*	*
2F# 2BB\	.	(<8dd 8dM/	8r	.	<
.	.	8r	8c#X\	.	.
.	.	8b 8B/	8r	.	.
.	.	8r	8f#\)	.	.
4G 4BB\	.	4ee 4e/	4ryy	.	[
*	*	*v	*v	*	*
=37	=37	=37	=37	=37
!	!	!LO:TX:a:i:t=Poco piu vivo.	!	!
4r	.	8ff#m\L	.	.
.	.	(8ee\	.	.
4a 4d'\	.	8dd\	.	<
.	.	8ff#\	.	.
4a 4d'\	.	8ee\	.	.
.	.	(8dd\J)	.	.
=38	=38	=38	=38	=38
4a 4c#X\	.	8.aa\L)	.	.
.	.	(16ff#\Jk	.	[
4a 4cn\	.	4ee\	.	>
4a 4B\	.	4dd\)	.	]]
=39	=39	=39	=39	=39
4f# 4B\	.	(8ddM\L	.	<
.	.	8cc#X\	.	.
4f# 4A\	.	8b\	.	.
.	.	8ff#\	.	.
4f# 4G\	.	8dd\	.	.
.	.	8b\J)	.	[[
=40	=40	=40	=40	=40
*	*	*^	*	*
4E\	.	8.b/L	4g 4d\	.	.
!	!	!	!	!	!LO:HP:t=cres.
.	.	(<16bM/Jk	.	.	<
!	!	!LO:S:s=1:note:problem=note-level slur	!	!	!
(8A\L	.	4.a/)	2c#X\	.	.
8E\J	.	.	.	.	.
4AA\)	.	.	.	.	.
!	!	!LO:TX:b:i:t=rit.	!	!	!
.	.	8g 8e/	.	.	.
!!LO:LB:g=original
=41	=41	=41	=41	=41	=41
!	!	!LO:TX:a:i:t=Con anima	!	!	!LO:DY:t=m.f.
4A 4D\	.	(2f#/	4d\	.	mf
4D 4AA 4DD\	.	.	4A 4F#\	.	.
4E 4AA 4DD\	.	8.g^/L	4c 4G\	.	.
.	.	16e/Jk)	.	.	.
=42	=42	=42	=42	=42	=42
4D 4AA 4DD\	.	(8.f#/L	4A 4F#\	.	<
.	.	16f#/Jk	.	.	.
4E 4AA 4DD\	.	4g^/	2c#X 2A\	.	.
4G 4AA 4DD\	.	4e/)	.	.	[
=43	=43	=43	=43	=43	=43
4F# 4AA 4DD\	.	(4.f#/	4d 4A\	.	.
!	!	!	!	!	!LO:HP:t=cres.
4D\	.	.	4d\	.	<
.	.	8gL 8e/	.	.	.
4DD\	.	8a 8f#/	4cn\	.	.
.	.	8a#X/J	.	.	.
=44	=44	=44	=44	=44	=44
4GG\	.	8b/L	4g 4B\	.	.
.	.	8cc#X/J	.	.	.
4G\	.	4dd/	4b\	.	.
4F#\	.	8ee/L	4a\	.	.
.	.	8ff#X/J)	.	.	.
=45	=45	=45	=45	=45	=45
*^	*	*	*	*	*
4e 4E\	4ryy	.	8.gg/L	4g\	.	.
!	!	!	!LO:TX:b:i:t=energico.	!	!	!
.	.	.	16ff#/Jk	.	.	.
4c#X/	4G\	.	4ee/	4b\	.	.
4c#/	4F#\	.	4ff#^/	4a#X\	.	.
*v	*v	*	*	*	*	*
!!LO:LB:g=original
=46	=46	=46	=46	=46	=46
4B 4F# 4BB\	.	(8.dd/L	4f# 4d\	.	.
!	!	!	!	!	!LO:DY:t=forte
.	.	16cc#X/Jk	.	.	f
4G#X 4D\	.	4b/	4f#\	.	.
4G# 4C#X\	.	4cc#X^/)	4e#X\	.	.
=47	=47	=47	=47	=47	=47
4F# 4FF#\	.	(4.a/	4f#\	.	.
4BBB\	.	.	4d\	.	<
.	.	8b/L	.	.	.
4BB\	.	8a/	4d#X\	.	.
.	.	8g#X/J	.	.	.
=48	=48	=48	=48	=48	=48
4EE\	.	8gn/L	4e\	.	.
.	.	8a/	.	.	[
2AA 2AAA\	.	8gM/	2c#X\	.	.
.	.	8f#/	.	.	.
!	!	!LO:TX:b:i:t=rit.	!	!	!
.	.	8g/	.	.	.
.	.	8e/J)	.	.	.
=49	=49	=49	=49	=49	=49
4AA 4DD\	.	(2f#/	4d\	.	.
!	!	!	!	!	!LO:DY:t=mf.:rj
4D 4AA 4DD\	.	.	4A 4F#\	.	mf
4E 4AA 4DD\	.	8.g^/L	4c 4G\	.	.
.	.	16e/Jk)	.	.	.
=50	=50	=50	=50	=50	=50
4D 4AA 4DD\	.	(8.f#/L	4A 4F#\	.	.
.	.	16f#/Jk	.	.	.
4E 4AA 4DD\	.	4g^/	2c#X 2A\	.	.
4G 4AA 4DD\	.	4e/)	.	.	.
!!LO:LB:g=original
=51	=51	=51	=51	=51	=51
4F# 4AA 4DD\	.	(4.f#/	4d 4A\	.	.
4DD\	.	.	4d\	.	<
.	.	8gL 8e/	.	.	.
4D\	.	8a 8f#/	4cn\	.	.
.	.	8a#X/J	.	.	.
=52	=52	=52	=52	=52	=52
4GG\	.	8b/L	4g 4B\	.	.
.	.	8cc#X/J	.	.	[
!	!	!	!	!	!LO:HP:t=cres.
4G\	.	4dd 4b/	2ryy	.	<
4e#X 4G\	.	4bb/)	.	.	.
=53	=53	=53	=53	=53	=53
4f# 4F#\	.	4aa#X/	4r	.	pp
*clefG2	*	*	*	*	*
4cc#X 4f#/	.	(>4aa# 4ff# 4a#X/	2ryy	.	.
4dd 4c#X/	.	8bbL 8ee#X 8b/	.	.	.
.	.	8gg#X/J)	.	.	.
=54	=54	=54	=54	=54	=54
4cc#X 4f#/	.	(>8.aa#XL 8.ff# 8.a#X/	4ryy	.	.
.	.	16aa#/Jk	.	.	.
2dd 2c#X/	.	4bb/	2ee#X 2b\	.	.
.	.	4gg#X/)	.	.	.
=55	=55	=55	=55	=55	=55
4r	.	(4ff#/	4r	.	pp
4ccn 4B/	.	4ff#/	4dd#X 4a\	.	.
4b 4e/	.	8gg/L	4ee 4g\	.	.
.	.	8ee/J)	.	.	.
!!LO:LB:g=original
=56	=56	=56	=56	=56	=56
*	*	*	*^	*	*
4ccn 4B/	.	(8.ff#/L	4dd#X 4a\	4ryy	.	>
.	.	16ff#/Jk	.	.	.	.
2b 2e/	.	4gg/	4ee\	2g\	.	.
.	.	4ee/)	4ryy	.	.	]
*clefF4	*	*	*	*	*	*
*	*	*	*v	*v	*	*
=57	=57	=57	=57	=57	=57
*^	*	*	*	*	*
*	*	*^	*	*	*	*
!	!	!	!	!	!	!	!LO:DY:t=m.f.
4r	8AA\L	.	5	4.cc#X/	2.g\	.	mf
.	8E\J	.	2	.	.	.	.
8r	2A\	.	(1 5)	.	.	.	.
8d/	.	2	.	8b/L	.	.	.
4c#X/	.	3	.	8a/	.	.	.
.	.	.	.	8ee/J	.	.	<
*	*	*v	*v	*	*	*	*
*v	*v	*	*	*	*	*
=58	=58	=58	=58	=58	=58
8dL 8D\	.	[4dd/	2f#\	.	.
8A\J	.	.	.	.	.
4d\	.	(<8dd/L]	.	.	[
.	.	8bM/	.	.	.
4c#X 4A\	.	8a/	4g\	.	.
.	.	8ee/J)	.	.	.
=59	=59	=59	=59	=59	=59
8dL 8D\	.	[4dd/	2f#\	.	.
8A\J	.	.	.	.	.
4d\	.	(<8dd/L]	.	.	.
.	.	8bM</	.	.	>
4c#X 4A\	.	8a/	4g\	.	.
.	.	8ee/J)	.	.	.
=60	=60	=60	=60	=60	=60
4d\	.	8dd/L	4f#\	.	.
!	!	!LO:TX:b:t=rit.	!	!	!
.	.	8ee/J	.	.	]
4f# 4A#X 4F#\	.	8dd/L	4r	.	.
!	!	!	!	!	!LO:HP:t=dim.
.	.	8ee/J	.	.	>
4FF#\	.	8ddL 8d/	4ryy	.	.
!	!	!LO:TX:b:t=3:color=dodgerblue:note=obwiedzione niebieskim kolorem	!	!	!
.	.	8cc#XJ 8c#X/	.	.	.
!!LO:PB:g=original
=61	=61	=61	=61	=61	=61
!	!	!LO:TX:a:i:t=Piu lento.	!	!	!
2F# 2BB\	.	8.b 8.B/	8.ryy	.	.
!	!	!	!LO:S:s=1:note:problem=note-level slur	!	!
.	.	16r	(>16c#X\	.	<
.	.	2dd 2d^>/)	2ryy	.	.
4FF# 4BBB^\	.	.	.	.	.
=62	=62	=62	=62	=62	=62
2G 2BB\	.	8.cc#X 8.c#X/	8.ryy	.	.
!	!	!	!LO:S:s=1:note:problem=note-level slur	!	!
.	.	16r	(>16f#\	.	.
.	.	2ee 2e^/)	2ryy	.	[
4GG 4BBB^\	.	.	.	.	.
=63	=63	=63	=63	=63	=63
2F# 2BB\	.	8ddM (8d/	8ryy	.	.
.	.	8r	8c#X\	.	<
.	.	8b 8B/	8ryy	.	.
.	.	8r	8f#\	.	[
4G 4BB\	.	4ee 4e/)	4ryy	.	.
*	*	*v	*v	*	*
=64	=64	=64	=64	=64
!	!	!LO:TX:a:i:t=Piu Vivo	!	!
4r	.	(8ddM\L	.	.
.	.	8cc#X\	.	.
4f# 4B'\	.	8b\	.	<
.	.	8dd\	.	.
4f# 4B'\	.	8cc#\	.	.
.	.	8b\J)	.	.
=65	=65	=65	=65	=65
4f# 4A#X'\	.	8.ff#\L	.	[
.	.	(16dd\Jk	.	.
.	.	.	.	>
4f# 4An'\	.	4cc#X\	.	.
4f# 4G#X'\	.	4b\)	.	]
!!LO:LB:g=original
=66	=66	=66	=66	=66
4c#X 4F#'\	.	(>8aM</L	.	<
.	.	8g#X/	.	.
4c# 4E'\	.	8f#/	.	.
.	.	8a/	.	.
4c# 4D'\	.	8g#/	.	.
.	.	8f#/J	.	[[
=67	=67	=67	=67	=67
4c#X 4C#X'\	.	8.cc#X/L)	.	.
!	!	!LO:TX:b:i:t=rit.	!	!
.	.	(>16g#XJk 16e#X 16B/	.	.
4FF#\	.	2a#X) 2f# 2A#X/	.	.
4F#\	.	.	.	.
=68	=68	=68	=68	=68
!	!	!LO:TX:a:i:t=piu lento.	!	!
2F# 2BB\	.	8.b 8.B/	.	.
!	!	!LO:S:s=1:note:problem=note-level slur	!	!
.	.	(16c#X\	.	.
.	.	2dd# 2d#/)	.	.
4F# 4BB\	.	.	.	.
=69	=69	=69	=69	=69
*	*	*^	*	*
!	!	!LO:S:s=1:note:problem=note-level slur	!	!	!
2F# 2BB\	.	(>8ee 8e/	8rd<	.	.
.	.	8r	8g\	.	.
.	.	2ff#) 2f#/	2ryy	.	.
4d#X 4BB\	.	.	.	.	.
=70	=70	=70	=70	=70	=70
2F# 2BB\	.	(<8dd#X 8d#X/	8r	.	<
.	.	8r	8c#X\	.	.
.	.	8b 8B/	8r	.	.
.	.	8r	8g\)	.	[
4d#X 4BB\	.	4ff# 4f#/	4ryy	.	.
*	*	*v	*v	*	*
!!LO:LB:g=original
=71	=71	=71	=71	=71
4r	.	8ggM\L	.	.
.	.	(8ff#\	.	.
4b 4e'\	.	8ee\	.	.
.	.	8gg\	.	.
4b 4e'\	.	8ff#\	.	.
.	.	8ee\J	.	.
=72	=72	=72	=72	=72
4b 4d#X'\	.	8.bb\L)	.	.
.	.	(16ff#\Jk	.	.
4b 4c#X'\	.	4ee\	.	.
4b 4B'\	.	4dd#X\)	.	.
=73	=73	=73	=73	=73
4f# 4B'\	.	(8dd#Xm\L	.	.
.	.	8cc#X\	.	.
4f# 4A#X'\	.	8b\	.	.
.	.	8dd#\	.	.
4f# 4G#X'\	.	8b\	.	.
.	.	8g#X\J	.	.
=74	=74	=74	=74	=74
*	*	*^	*	*
4C#X\	.	8.g#X/L)	4e 4B\	.	.
!	!	!LO:TX:b:i:t=rit.	!	!	!
.	.	(16g#M/Jk	.	.	.
(8F#\L	.	4.f#/	2A#X\	.	.
8C#\J	.	.	.	.	.
4FF#\)	.	.	.	.	.
.	.	8e 8c#X/)	.	.	.
=75	=75	=75	=75	=75	=75
*^	*	*	*	*	*
!	!	!	!LO:TX:a:Bi:t=Con Anima	!	!	!LO:DY:t=mf.
4F#\	4BB\	.	(2d#X/	4B\	.	mf
4F# 4D#X/	4BB 4FF# 4BBB\	.	.	2ryy	.	.
4F# 4E/	4C#X 4FF# 4BBB\	.	8.e/L	.	.	.
.	.	.	16c#X/Jk)	.	.	.
*	*	*	*v	*v	*	*
!!LO:LB:g=original
=76	=76	=76	=76	=76	=76
4F# 4D#X/	4BB 4FF# 4BBB\	.	(>8.d#X/L	.	.
.	.	.	16d#/Jk	.	.
2A#X 2F#/	4C 4FF# 4BBB\	.	4e/	.	.
.	4E 4FF# 4BBB\	.	4c#X/)	.	.
=77	=77	=77	=77	=77	=77
*	*	*	*^	*	*
4B 4F#/	4D#X 4FF# 4BBB\	.	(4.d#X/	4ryy	.	.
4BB\	2ryy	.	.	4B\	.	<
.	.	.	8eL 8c/	.	.	.
4BBB\	.	.	8f#/	4d# 4A\	.	.
.	.	.	8f##X/J	.	.	.
*v	*v	*	*	*	*	*
=78	=78	=78	=78	=78	=78
4EE\	.	8g#/L	4e 4G#X\	.	[
.	.	8a#X/J	.	.	.
!	!	!	!	!	!LO:HP:t=cres.
4E\	.	4b/	4g#\	.	<
4D#X\	.	8cc#X/L	4f#\	.	.
.	.	8dd#X/J)	.	.	.
=79	=79	=79	=79	=79	=79
4c#X 4C#X\	.	8ee/L	4e\	.	.
!	!	!LO:TX:b:Bi:t=energico.	!	!	!
.	.	8dd#X/J	.	.	.
4A#X 4E\	.	4cc#X/	4g\	.	.
4A# 4D#X\	.	4dd#^/	4f##X\	.	.
=80	=80	=80	=80	=80	=80
4GG#X\	.	8b/L	4d#X 4B\	.	.
!	!	!	!	!	!LO:DY:t=forte
.	.	8a#X/J	.	.	f
4E#X 4BB\	.	4g/	(4d#\	.	.
4E# 4AA#X\	.	4a#^/	4c##X\)	.	.
!!LO:LB:g=original
=81	=81	=81	=81	=81	=81
4D#X 4DD#X\	.	(4.f#/	4d#X\	.	.
!	!	!	!	!	!LO:HP:t=cres
4GGG#X\	.	.	4B\	.	<
.	.	8g#X/L	.	.	.
4GG#X\	.	8f#/	4B#X\	.	.
.	.	8e#X/J	.	.	.
=82	=82	=82	=82	=82	=82
(4CC#X\	.	8en/L	4c#X\	.	.
!	!	!	!	!	!LO:DY:rj
.	.	8f#/J	.	.	f
!	!	!LO:TX:b:i:t=rit.	!	!	!
2FF# 2FFF#\)	.	8eM/L	2A#X\	.	.
.	.	8d#X/	.	.	.
.	.	8e/	.	.	.
.	.	8c#/J)	.	.	.
=83	=83	=83	=83	=83	=83
*^	*	*	*	*	*
!	!	!	!LO:TX:a:Bi:t=Con bravura	!	!	!
4FF# 4BBB\	4ryy	.	(2d#X/	4B\	.	.
.	.	.	.	.	.	f
4F# 4D#X/	4BB 4FF# 4BBB\	.	.	2ryy	.	.
4F# 4E/	4C# 4FF# 4BBB\	.	8.e^/L	.	.	.
.	.	.	16c#X/Jk)	.	.	.
*	*	*	*v	*v	*	*
=84	=84	=84	=84	=84	=84
4F# 4D#X/	4BB 4FF# 4BBB\	.	(>8.d#X/L	.	.
.	.	.	16d#/Jk	.	.
2A#X 2F#/	4C#X 4FF# 4BBB\	.	4e^/	.	.
.	4E 4FF# 4BBB\	.	4c#X/)	.	.
=85	=85	=85	=85	=85	=85
*	*	*	*^	*	*
4B 4F#/	4D#X 4FF# 4BBB\	.	(4.d#X/	4ryy	.	.
4BB\	2ryy	.	.	4B\	.	<
.	.	.	8eL 8c#X/	.	.	.
4BBB\	.	.	8f#/	4d# 4A\	.	.
.	.	.	8f##X/J)	.	.	[[
*v	*v	*	*	*	*	*
!!LO:LB:g=original
=86	=86	=86	=86	=86	=86
4EE\	.	(8g#X/L	4e 4G#X\	.	.
.	.	8a#X/J	.	.	.
4E\	.	4b 4g#/	2ryy	.	.
4c##X 4E\	.	4gg#X/)	.	.	.
=87	=87	=87	=87	=87	=87
4d#X 4D#X\	.	(4ff##X/	4r	.	pp
*clefG2	*	*	*	*	*
4a#X 4d#X/	.	4ff##/	4dd 4f##X\	.	.
4b 4A#X/	.	8gg#X^/L	4cc##X 4g#X\	.	.
.	.	8ee#X/J)	.	.	.
=88	=88	=88	=88	=88	=88
4a#X 4d#X/	.	(8.ff##X/L	4dd#X 4f##X\	.	.
.	.	16ff##/Jk	.	.	.
2b 2A#X/	.	4gg#X^/	2cc##X 2g#X\	.	.
.	.	4ee#X/)	.	.	.
=89	=89	=89	=89	=89	=89
!	!	!	!	!	!LO:DY:t=piano.
4r	.	(4dd#X/	4r	.	p
4a 4G#X/	.	4dd#/	4f#\	.	.
4g#X 4c#X/	.	8ee^/L	4e\	.	.
.	.	8cc#X/J)	.	.	.
=90	=90	=90	=90	=90	=90
4a 4G#X/	.	(8.dd#X/L	4f#\	.	.
.	.	16dd#/Jk	.	.	.
2g#X 2c#X/	.	4ee^/	2e\	.	.
.	.	4cc#X/)	.	.	.
!!LO:PB:g=original
=91	=91	=91	=91	=91	=91
*^	*	*	*	*	*
*clefF4	*	*	*	*	*	*
!	!	!	!	!	!	!LO:DY:t=mf.
4r	8FF#\L	.	(4.a#X/	2.e\	.	mf
.	8C#X\J	.	.	.	.	.
8r	2F#\	.	.	.	.	.
8B/	.	.	8g#X/L	.	.	.
4A#X/	.	.	8f#/	.	.	.
.	.	.	8cc#X/J)	.	.	.
*v	*v	*	*	*	*	*
=92	=92	=92	=92	=92	=92
8BL 8BB\	.	([4b/	2d#X\	.	.
8F#\J	.	.	.	.	.
4B\	.	8b/L]	.	.	.
.	.	8g#XM/	.	.	.
!LO:TX:b:t=4:color=dodgerblue:note=obwiedzione niebieskim kolorem	!	!	!	!	!
4A#X 4F#\	.	8f#/	4e\	.	.
.	.	8cc#X/J)	.	.	.
=93	=93	=93	=93	=93	=93
8BL 8BB\	.	([4b/	2d#X\	.	.
8F#\J	.	.	.	.	.
4B\	.	8b/L]	.	.	.
.	.	8g#XM/	.	.	.
4A#X 4F#\	.	8f#/	4e\	.	.
.	.	8cc#X/J)	.	.	.
*	*	*v	*v	*	*
=94	=94	=94	=94	=94
2B 2BB\	.	8bL 8d#X/	.	.
.	.	8cc#X/	.	.
.	.	8b/	.	.
.	.	8f#/	.	.
4r	.	8d#/	.	>
.	.	8cc#/J	.	.
=95	=95	=95	=95	=95
2.r	.	8b/L	.	.
.	.	8f#/	.	.
.	.	8d#X/	.	.
.	.	8cc#X/	.	.
.	.	8b/	.	.
.	.	8f#/J	.	]
!!LO:LB:g=original
=96	=96	=96	=96	=96
2.r	.	8dn/L	.	.
.	.	8cc#X/	.	>
.	.	8b/	.	.
.	.	8f#/	.	.
.	.	8d/	.	.
.	.	8cc#/J	.	.
=97	=97	=97	=97	=97
2.r	.	8b/L	.	]
.	.	8f#/	.	.
!	!	!	!	!LO:DY:t=piano
.	.	8d/	.	p
.	.	8cc/	.	.
.	.	8b/	.	.
.	.	8d/J	.	.
=98	=98	=98	=98	=98
*^	*	*	*	*
*	*	*	*2\right	*	*
!LO:S:s=1:note:problem=note-level slur	!	!	!LO:TX:a:i:t=Tempo 1°	!	!
(<4B/	4D 4GG\	.	(2.dd\	.	.
8E/L	2ryy	.	.	.	<
8F#/	.	.	.	.	.
8G/	.	.	.	.	.
8B/J)	.	.	.	.	[[
=99	=99	=99	=99	=99	=99
(16A/LL	4D\	.	4cc\	.	.
16B/J	.	.	.	.	.
8A/J)	.	.	.	.	.
(>8E/L	2ryy	.	8b/L	.	.
8F#/	.	.	8a/	.	.
8D/	.	.	8g/	.	.
8d/J)	.	.	8e/J)	.	.
*v	*v	*	*	*	*
=100	=100	=100	=100	=100
4B 4GG\	.	(>4d/	.	.
!	!	!	!	!LO:HP:t=piu cres.
4D 4GG\	.	8e/L	.	<
.	.	8f#/	.	.
4B\	.	8g/	.	.
.	.	8b/J)	.	.
!!LO:LB:g=original
=101	=101	=101	=101	=101
4D 4FF#^\	.	(>16a/LL	.	.
.	.	16b/J	.	.
.	.	8a/J	.	.
4c\	.	8e/L	.	.
.	.	8f#/	.	.
4c\	.	8d/	.	.
.	.	8dd/J)	.	.
=102	=102	=102	=102	=102
*	*	*^	*	*
4B 4GG\	.	(8dd/L	4r	.	<
.	.	8gg/J)	.	.	.
*	*	*2\left	*	*	*
(4d 4B\	.	(4gg^/	2g^\	.	[
4c#X 4B-X\	.	8ff#/L	.	.	.
.	.	8ee/J)	.	.	.
=103	=103	=103	=103	=103	=103
*^	*	*	*	*	*
4cn/)	2A\	.	(8dd/L	2f#\	.	.
.	.	.	8ee/J	.	.	.
.	.	.	.	.	.	>
(8d/L	.	.	4dd/	.	.	.
8e/J	.	.	.	.	.	.
4d/)	4G#X\	.	4b/)	4fn\	.	]
=104	=104	=104	=104	=104	=104	=104
(4c/	4A\	.	(8cc/L	2e\	.	<
.	.	.	8ee/J	.	.	.
4c/	2AA\	.	4ee/	.	.	[
4F#/)	.	.	8dd/L	4e\	.	.
.	.	.	8cc/J)	.	.	.
=105	=105	=105	=105	=105	=105	=105
(4F#/	2.BB\	.	(8b/L	4d#X\	.	>
.	.	.	8qdd/	.	.	.
.	.	.	8cc/J	.	.	.
8G/L	.	.	4b/	4e\	.	.
8A/J	.	.	.	.	.	.
4B/)	.	.	4f#/)	4d#\	.	]
*v	*v	*	*	*	*	*
!!LO:LB:g=original
=106	=106	=106	=106	=106	=106
(4E\	.	(8g/L	4e 4B\	.	<
.	.	8b/J)	.	.	.
2A 2AA^\)	.	4a^/	2c\	.	[
.	.	(8e/L	.	.	.
.	.	8f#/J	.	.	.
=107	=107	=107	=107	=107	=107
!	!	!LO:TUP:a:problem=klamra łukowa	!	!	!
(4E\	.	12g/L	4e 4B\	.	<
.	.	12a/	.	.	.
.	.	12b/J)	.	.	.
2A 2AA^\)	.	(4a^/	2c\	.	[
.	.	4e/)	.	.	.
=108	=108	=108	=108	=108	=108
*	*	*	*^	*	*
!LO:TX:a:t=due pedale	!	!	!	!	!	!
[2.DD\	.	4a/	4ryy	[<2.d [<2.c\	1 1	.
!	!	!LO:TX:a:t=m.g	!	!	!	!
.	.	[2dd/	8e\L	.	.	.
.	.	.	8g\	.	.	<
!	!	!LO:TX:a:i:t=ritenuto.	!	!	!	!
.	.	.	8f#\	.	.	.
.	.	.	8a\J	.	.	.
=109	=109	=109	=109	=109	=109	=109
*2\right	*	*	*	*	*	*
2DD\]	.	4dd/]	8g\L	2.d] 2.c\]	.	[
.	.	.	8b\	.	.	.
.	.	4dd/	8f#\	.	.	>
.	.	.	8a\	.	.	.
4D\	.	4ryy	8e\	.	.	]
.	.	.	8g\J	.	.	.
*	*	*v	*v	*v	*	*
=110	=110	=110	=110	=110
!	!	!LO:TX:a:Bi:t=Piu mosso.	!	!
4D 4GG\	.	(4d/	.	f
4B\	.	8e/L	.	.
.	.	8f#/	.	.
4B\	.	8g/	.	.
.	.	8b/J)	.	.
!!LO:LB:g=original
=111	=111	=111	=111	=111
4D 4GG\	.	(>(16a/LL	.	<
.	.	16b/J	.	.
.	.	8a/J)	.	.
4c\	.	8e/L	.	.
.	.	8f#/	.	.
4c\	.	8d/	.	[
.	.	8dd/J)	.	.
=112	=112	=112	=112	=112
4B 4AA\	.	(>4g/	.	.
!	!	!	!	!LO:HP:t=cres
4d 4G\	.	8a/L	.	<
.	.	8b/	.	.
4e\	.	8cc/	.	.
.	.	8ee/J)	.	.
=113	=113	=113	=113	=113
4g 4G\	.	(>(16dd/LL	.	.
.	.	16ee/J	.	.
.	.	8dd/J)	.	.
4g 4e\	.	8cc#X/L	.	.
.	.	8dd/)	.	.
4g 4e-X\	.	8ccn/	.	.
.	.	8gg/J	.	.
=114	=114	=114	=114	=114
*	*	*^	*	*
4g 4d\	.	(8gg/L	4b\	.	.
.	.	8bb/J)	.	.	.
*	*	*2\right	*	*	*
4d\	.	(4bb^/	2b^>\	.	.
4D\	.	8aa/L	.	.	.
.	.	8gg/J)	.	.	.
=115	=115	=115	=115	=115	=115
*^	*	*	*	*	*
*2\left	*	*	*2\left	*	*	*
8e 8B 8G/	2C#X\	.	[2bb/	2.b\	.	.
8F#X/L	.	.	.	.	.	ff
[<8G/	.	.	.	.	.	.
[>8B 8G/_<	.	.	.	.	.	.
[8e 8B] 8G/]	4ryy	.	8bb/L]	.	.	.
8e/J]	.	.	8gg/J	.	.	.
*v	*v	*	*	*	*	*
*	*	*v	*v	*	*
!!LO:LB:g=original
=116	=116	=116	=116	=116
!	!	!	!	!LO:DY:t=forte
4d 4B 4G 4D\	.	(>8ggL 8b/	.	f
.	.	8bb/J	.	.
4b 4d\	.	4gg^>M</	.	.
4a#X 4d\	.	8ff#/L	.	.
.	.	8ee/J)	.	.
=117	=117	=117	=117	=117
*^	*	*	*	*
4b\	4d\	.	(>8dd/L	.	.
.	.	.	8gg/J	.	.
2g/	4e\	.	2cc^>/)	.	.
.	4e-X\	.	.	.	.
*v	*v	*	*	*	*
=118	=118	=118	=118	=118
4g 4d\	.	(>8b/L	.	>
.	.	8dd/J	.	.
4g 4d\	.	4b^>m</	.	.
4e 4c#X\	.	8a/L	.	.
.	.	8g/J)	.	.
=119	=119	=119	=119	=119
*	*	*^	*	*
4cn\	.	(8a/L	4e\	.	.
.	.	8b/J	.	.	.
4D\	.	2a/	4e [4c\	.	]
4DD\	.	.	4f# 4c\])	.	.
=120	=120	=120	=120	=120	=120
*	*	*	*^	*	*
2D 2GG\	.	(8g/L	4B\	4ryy	.	.
!	!	!	!	!	!	!LO:DY:t=piano
.	.	8b/J	.	.	.	p
!	!	!LO:TX:a:t=m.g	!	!	!	!
.	.	2dd\	2c\	4a^/	.	.
4D\	.	.	.	8e/L	.	.
!	!	!	!	!LO:TX:t=P:problem=utwór urywa się w takcie nr 120	!	!
.	.	.	.	8f#/J)	.	.
*	*	*v	*v	*v	*	*
==	==	==	==	==
*-	*-	*-	*-	*-
!!!system-decoration: {(s1,s2)}
!!!RDF**kern: > = above
!!!RDF**kern: < = below
!!!RDF**dynam: pp = "pp."
!!!ENC: Filip Voros
!!!END: 2021-11-07
!!!ENC: Andrzej Kubiczek
!!!END: 2021-11-13
!!!YEC: Copyright 2022 Narodowy Instytut Fryderyka Chopina (https://polishscores.org)
!!!YEM: Licence CC BY 4.0 (https://creativecommons.org/licenses/by/4.0)
